www/assets/images/test_icons/flags/AZ.svg

<svg fill="none" height="15" viewBox="0 0 21 15" width="21" xmlns="http://www.w3.org/2000/svg" xmlns:xlink="http://www.w3.org/1999/xlink"><mask id="a" height="15" maskUnits="userSpaceOnUse" width="21" x="0" y="0"><path d="m19 0h-17c-1.10457 0-2 .89543-2 2v11c0 1.1046.89543 2 2 2h17c1.1046 0 2-.8954 2-2v-11c0-1.10457-.8954-2-2-2z" fill="#fff"/></mask><g mask="url(#a)"><path d="m19 0h-17c-1.10457 0-2 .89543-2 2v11c0 1.1046.89543 2 2 2h17c1.1046 0 2-.8954 2-2v-11c0-1.10457-.8954-2-2-2z" fill="#e3002e"/><g clip-rule="evenodd" fill-rule="evenodd"><path d="m0 10h21v5h-21z" fill="#00af62"/><path d="m0 0h21v5h-21z" fill="#0097c5"/><path d="m12 7h1v1h-1z" fill="#fbdce2"/><path d="m12.5 9c-.456.607-1.182 1-2 1-1.38 0-2.5-1.12-2.5-2.5s1.12-2.5 2.5-2.5c.818 0 1.544.393 2 1h-1.5c-.828 0-1.5.672-1.5 1.5s.672 1.5 1.5 1.5z" fill="#fff"/></g><path d="m19 .5h-17c-.82843 0-1.5.67157-1.5 1.5v11c0 .8284.67157 1.5 1.5 1.5h17c.8284 0 1.5-.6716 1.5-1.5v-11c0-.82843-.6716-1.5-1.5-1.5z" stroke="#000" stroke-opacity=".1"/></g></svg>

<svg width="21" height="15" viewBox="0 0 21 15" fill="none" xmlns="http://www.w3.org/2000/svg">
<mask id="mask0_3_202" style="mask-type:alpha" maskUnits="userSpaceOnUse" x="0" y="0" width="21" height="15">
<path d="M19 0H2C0.89543 0 0 0.89543 0 2V13C0 14.1046 0.89543 15 2 15H19C20.1046 15 21 14.1046 21 13V2C21 0.89543 20.1046 0 19 0Z" fill="white"/>
</mask>
<g mask="url(#mask0_3_202)">
<path d="M19 0H2C0.89543 0 0 0.89543 0 2V13C0 14.1046 0.89543 15 2 15H19C20.1046 15 21 14.1046 21 13V2C21 0.89543 20.1046 0 19 0Z" fill="#E3002E"/>
<path fill-rule="evenodd" clip-rule="evenodd" d="M0 10H21V15H0V10Z" fill="#00AF62"/>
<path fill-rule="evenodd" clip-rule="evenodd" d="M0 0H21V5H0V0Z" fill="#0097C5"/>
<path fill-rule="evenodd" clip-rule="evenodd" d="M12 7H13V8H12V7Z" fill="#FBDCE2"/>
<path fill-rule="evenodd" clip-rule="evenodd" d="M12.5 9C12.044 9.607 11.318 10 10.5 10C9.12 10 8 8.88 8 7.5C8 6.12 9.12 5 10.5 5C11.318 5 12.044 5.393 12.5 6H11C10.172 6 9.5 6.672 9.5 7.5C9.5 8.328 10.172 9 11 9H12.5Z" fill="white"/>
<path d="M19 0.5H2C1.17157 0.5 0.5 1.17157 0.5 2V13C0.5 13.8284 1.17157 14.5 2 14.5H19C19.8284 14.5 20.5 13.8284 20.5 13V2C20.5 1.17157 19.8284 0.5 19 0.5Z" stroke="black" stroke-opacity="0.1"/>
</g>
</svg>
